hook/res/progress_updated.svg

<?xml version="1.0" encoding="UTF-8"?>
<svg xmlns="http://www.w3.org/2000/svg" xmlns:xlink="http://www.w3.org/1999/xlink" width="px" height="32px" viewBox="0 0 40 32" version="1.1">
<g id="surface1">
<path style=" stroke:none;fill-rule:nonzero;fill:rgb(0%,0%,0%);fill-opacity:1;" d="M 5.5 0 C 2.460938 0 0 2.460938 0 5.5 L 0 26.5 L 0.0234375 26.5 C -0.117188 27.90625 0.34375 29.304688 1.292969 30.355469 C 2.238281 31.402344 3.585938 32 5 32 L 24.675781 32 C 23.527344 31.195312 22.546875 30.175781 21.78125 29 L 5 29 C 3.894531 29 3 28.105469 3 27 C 3 25.894531 3.894531 25 5 25 L 20.179688 25 C 20.0625 24.351562 20 23.679688 20 23 C 20 22.664062 20.011719 22.332031 20.042969 22 L 5 22 C 4.289062 22 3.613281 22.148438 3 22.417969 L 3 5.5 C 3 4.117188 4.117188 3 5.5 3 L 24.5 3 C 24.773438 3 25 3.226562 25 3.5 L 25 13.78125 C 25.914062 13.1875 26.925781 12.71875 28 12.417969 L 28 3.5 C 28 1.570312 26.429688 0 24.5 0 Z M 31 14 C 26.03125 14 22 18.03125 22 23 C 22 27.96875 26.03125 32 31 32 C 35.96875 32 40 27.96875 40 23 C 40 18.03125 35.96875 14 31 14 M 26.792969 23.207031 C 26.40625 22.820312 26.40625 22.179688 26.792969 21.792969 L 30.292969 18.292969 C 30.679688 17.90625 31.320312 17.90625 31.707031 18.292969 L 35.207031 21.792969 C 35.59375 22.179688 35.59375 22.820312 35.207031 23.207031 C 34.820312 23.59375 34.179688 23.59375 33.792969 23.207031 L 32 21.414062 L 32 27 C 32 27.550781 31.550781 28 31 28 C 30.449219 28 30 27.550781 30 27 L 30 21.414062 L 28.207031 23.207031 C 27.820312 23.59375 27.179688 23.59375 26.792969 23.207031 "/>
</g>
</svg>

<svg xmlns="http://www.w3.org/2000/svg" viewBox="0 0 40 32"><path d="M5.5 0A5.5 5.5 0 0 0 0 5.5v21h.02A5 5 0 0 0 5 32h19.68a11 11 0 0 1-2.9-3H5a2 2 0 1 1 0-4h15.18a11 11 0 0 1-.14-3H5q-1.07 0-2 .42V5.5A2.5 2.5 0 0 1 5.5 3h19c.27 0 .5.23.5.5v10.28q1.38-.9 3-1.36V3.5A3.5 3.5 0 0 0 24.5 0ZM31 14a9 9 0 1 0 0 18 9 9 0 0 0 0-18m-4.2 9.2a1 1 0 0 1 0-1.4l3.5-3.5a1 1 0 0 1 1.4 0l3.5 3.5a1 1 0 0 1 0 1.4 1 1 0 0 1-1.4 0L32 21.42V27a1 1 0 0 1-2 0v-5.59l-1.8 1.8a1 1 0 0 1-1.4 0"/></svg>
